; HEADER_BLOCK_START
; generated by OrcaSlicer 2.1.1 on 2024-07-23 at 12:02:21
; total layer number: 48
; filament_density: 1.24
; filament_diameter: 1.75
; max_z_height: 6.00
; HEADER_BLOCK_END

; THUMBNAIL_BLOCK_START

;
; THUMBNAIL_BLOCK_END

; THUMBNAIL_BLOCK_START

;
; THUMBNAIL_BLOCK_END

; external perimeters extrusion width = 0.80mm
; perimeters extrusion width = 0.67mm
; infill extrusion width = 0.67mm
; solid infill extrusion width = 0.60mm
; top infill extrusion width = 0.60mm
; first layer extrusion width = 0.72mm

; external perimeters extrusion width = 0.80mm
; perimeters extrusion width = 0.67mm
; infill extrusion width = 0.67mm
; solid infill extrusion width = 0.60mm
; top infill extrusion width = 0.60mm
; first layer extrusion width = 0.72mm

; EXECUTABLE_BLOCK_START
M73 P0 R14
M201 X1500 Y1500 Z200 E5000
M203 X200 Y200 Z25 E60
M204 P1250 R1250 T1250
M205 X10.00 Y10.00 Z0.40 E4.50 ; sets the jerk limits, mm/sec
;TYPE:Custom
G21 ; set units to millimeters
G90 ; use absolute coordinates
M82 ; use absolute distances for extrusion
G92 E0 ; zero extruder
M107 ; turn off fan

M301 E P19.56 I2.08 D46.07 ; set PID Extruder1
M304 P132.91 I11.48 D372.91 ; set PID Bed

G28 X0 Y0                ;move X/Y to min endstops
G28 Z0                   ;move Z to min endstops

G0 F4200 X0 Y2

M6013 S25                ;set chamber temperature

M190 S30 ; set bed temperature and wait for it to be reached

M104 S240 ; set temperature
M109 S240 ; set temperature and wait for it to be reached

M900 W0.6 H0.25 D1.75  ;set linear advance ratio

;Add Clear Nozzle
G92 E0                   ;zero the extruded length
M83                      ;set E value is relative 
G0 F4200 X0 Y2 

M420 S ;turn bed levelling on
G0 F1500 X40 Y2 Z0.4           ;move a bit while down the Z 
M221 S200             ;set flow is 200% 
G1 F200 X60 E+8          ;extrude amont filament to clean the hotend 
M221 S100             ;reset flow is 100% 

M82                      ;set E value is absolute
G92 E0                   ;zero the extruded length again

;Add End
G0 Z1 F4200           ;move the platform down 15mm
;Put printing message on LCD screen
M117 Printing...
G90
G21
M82 ; use absolute distances for extrusion
G92 E0
; filament start gcode
M900 K18
M106 S0
;LAYER_CHANGE
;Z:0.25
;HEIGHT:0.25
;BEFORE_LAYER_CHANGE
;0.25


G1 Z.25 F5400
;AFTER_LAYER_CHANGE
;G92 E0   ;zero the extruded length again
;0.25
;_SET_FAN_SPEED_CHANGING_LAYER
M204 S800
M205 X8 Y8
G1 X149.638 Y81.963
;TYPE:Skirt
;WIDTH:0.72
G1 F1980.942
G1 X150.53 Y80.417 E.12983
M73 P0 R13
G1 X151.489 Y78.982 E.25533
G1 X153.393 Y76.62 E.47596
G1 X154.592 Y75.379 E.60147
G1 X155.914 Y74.179 E.7313
M73 P1 R13
G1 X158.335 Y72.351 E.95193
G1 X159.851 Y71.408 E1.08176
G1 X161.374 Y70.595 E1.20725
G1 X164.167 Y69.41 E1.42789
G1 X165.866 Y68.864 E1.55771
G1 X167.599 Y68.433 E1.68755
G1 X170.479 Y67.981 E1.89953
G1 X172.913 Y67.846 E2.07683
G1 X227.098 Y67.847 E6.01731
G1 X229.462 Y67.975 E6.18947
G1 X231.818 Y68.315 E6.36255
G1 X234.134 Y68.864 E6.53564
G1 X236.391 Y69.617 E6.70871
G1 X238.09 Y70.338 E6.84287
G1 X240.2 Y71.438 E7.01595
G1 X242.204 Y72.721 E7.18903
G1 X244.086 Y74.179 E7.3621
G1 X245.788 Y75.756 E7.53086
G1 X247.385 Y77.521 E7.70394
G1 X248.818 Y79.421 E7.87702
G1 X250.076 Y81.441 E8.0501
G1 X251.149 Y83.566 E8.22318
G1 X252.028 Y85.776 E8.39617
G1 X252.572 Y87.54 E8.53041
G1 X253.091 Y89.863 E8.70349
G1 X253.401 Y92.223 E8.87657
G1 X253.499 Y94.565 E9.04706
G1 X253.499 Y206.589 E17.19362
G1 X253.385 Y208.966 E17.3667
G1 X253.059 Y211.323 E17.53978
G1 X252.524 Y213.643 E17.71286
G1 X251.785 Y215.905 E17.88594
G1 X251.1 Y217.553 E18.01576
G1 X250.334 Y219.1 E18.14127
G1 X248.784 Y221.639 E18.35759
G1 X246.923 Y224.034 E18.57821
G1 X244.845 Y226.163 E18.79452
G1 X242.543 Y228.046 E19.01083
G1 X241.066 Y229.049 E19.14066
M73 P2 R13
G1 X239.577 Y229.923 E19.26616
G1 X236.834 Y231.219 E19.48679
G1 X235.158 Y231.833 E19.61662
G1 X234.08 Y232.121 E19.69778
G1 X166.314 Y232.153 E24.62582
G1 X165.529 Y232.044 E24.68349
G1 X163.664 Y231.415 E24.82656
G1 X162.019 Y230.723 E24.95639
G1 X160.423 Y229.923 E25.08622
G1 X158.884 Y229.017 E25.21605
G1 X157.409 Y228.011 E25.34588
G1 X155.599 Y226.56 E25.51463
G1 X154.296 Y225.339 E25.64446
G1 X153.077 Y224.034 E25.77429
G1 X151.949 Y222.651 E25.90412
G1 X150.916 Y221.195 E26.03394
G1 X149.983 Y219.673 E26.16377
G1 X149.153 Y218.092 E26.2936
G1 X148.431 Y216.46 E26.42343
G1 X147.816 Y214.77 E26.55416
G1 X147.308 Y213.01 E26.68741
G1 X146.93 Y211.265 E26.81724
G1 X146.67 Y209.499 E26.94707
G1 X146.501 Y206.553 E27.16165
G1 X146.506 Y94.006 E35.3463
G1 X146.657 Y91.63 E35.51938
G1 X147.02 Y89.278 E35.69246
G1 X147.59 Y86.968 E35.86554
G1 X148.361 Y84.728 E36.03781
G1 X149.613 Y82.018 E36.25489
; printing object Markierung.step id:0 copy 0
G92 E0
G1 X152.295 Y83.412 F5400
;TYPE:Outer wall
G1 F1500
G1 X153.086 Y82.037 E.11539
G1 X153.662 Y81.155 E.19198
G1 X154.277 Y80.298 E.26872
G1 X154.93 Y79.469 E.34545
G1 X155.62 Y78.67 E.42219
G1 X156.344 Y77.903 E.49893
G1 X157.102 Y77.169 E.57567
G1 X157.892 Y76.469 E.6524
G1 X158.712 Y75.806 E.72914
G1 X159.562 Y75.179 E.80588
G1 X160.436 Y74.592 E.88247
G1 X161.801 Y73.783 E.99786
G1 X162.736 Y73.297 E1.07445
G1 X163.693 Y72.853 E1.15119
G1 X164.669 Y72.452 E1.22792
G1 X165.66 Y72.095 E1.30452
G1 X167.18 Y71.642 E1.41991
G1 X168.205 Y71.398 E1.49649
G1 X169.241 Y71.2 E1.57323
G1 X170.285 Y71.048 E1.64997
G1 X171.335 Y70.943 E1.72671
M73 P3 R13
G1 X172.389 Y70.884 E1.80345
G1 X173.444 Y70.873 E1.88019
G1 X174.499 Y70.909 E1.95692
G1 X175.551 Y70.992 E2.03366
G1 X176.598 Y71.122 E2.1104
G1 X177.638 Y71.298 E2.18714
G1 X178.67 Y71.521 E2.26387
G1 X179.68 Y71.786 E2.33981
G1 X180.698 Y72.103 E2.41735
G1 X181.69 Y72.461 E2.49408
G1 X182.676 Y72.868 E2.57163
G1 X183.622 Y73.309 E2.64756
G1 X184.56 Y73.798 E2.72444
G1 X185.919 Y74.605 E2.83939
G1 X186.794 Y75.194 E2.91613
G1 X187.643 Y75.822 E2.99287
G1 X188.462 Y76.486 E3.06961
G1 X189.252 Y77.187 E3.14635
G1 X190.009 Y77.922 E3.22308
G1 X190.732 Y78.69 E3.29982
G1 X191.421 Y79.49 E3.37656
G1 X192.073 Y80.319 E3.45329
G1 X192.694 Y81.186 E3.53084
G1 X193.263 Y82.061 E3.60677
G1 X193.798 Y82.969 E3.68336
G1 X194.525 Y84.379 E3.79875
G1 X194.956 Y85.34 E3.87534
G1 X195.343 Y86.322 E3.95208
G1 X195.687 Y87.319 E4.02882
G1 X195.985 Y88.331 E4.10555
G1 X196.239 Y89.358 E4.18242
G1 X196.546 Y90.817 E4.29089
G1 X196.792 Y91.419 E4.3382
G1 X197.02 Y91.8 E4.37045
G1 X197.289 Y92.146 E4.40229
G1 X197.597 Y92.456 E4.43414
G1 X197.941 Y92.727 E4.46598
G1 X198.315 Y92.955 E4.49783
G1 X198.714 Y93.135 E4.52968
G1 X199.137 Y93.268 E4.56192
G1 X199.776 Y93.365 E4.60886
G1 X200.219 Y93.365 E4.64111
G1 X200.654 Y93.312 E4.67295
G1 X201.084 Y93.206 E4.70519
G1 X201.68 Y92.958 E4.75214
G1 X202.059 Y92.727 E4.78438
G1 X202.407 Y92.453 E4.81663
G1 X202.848 Y91.981 E4.86357
G1 X203.098 Y91.615 E4.89581
G1 X203.3 Y91.227 E4.92766
G1 X203.454 Y90.813 E4.95979
G1 X203.883 Y88.843 E5.10637
G1 X204.314 Y87.319 E5.22153
G1 X204.846 Y85.827 E5.33677
G1 X205.254 Y84.858 E5.41321
G1 X205.949 Y83.434 E5.52846
G1 X206.737 Y82.061 E5.64355
G1 X207.616 Y80.743 E5.75879
G1 X208.249 Y79.901 E5.83538
G1 X208.919 Y79.086 E5.91212
G1 X209.624 Y78.303 E5.98871
G1 X210.75 Y77.186 E6.1041
G1 X211.538 Y76.486 E6.18069
G1 X212.357 Y75.822 E6.25743
G1 X213.206 Y75.194 E6.33416
G1 X214.08 Y74.607 E6.41076
G1 X215.444 Y73.796 E6.52614
G1 X216.376 Y73.31 E6.60259
G1 X217.82 Y72.657 E6.71783
G1 X219.304 Y72.102 E6.83307
G1 X220.308 Y71.79 E6.90952
G1 X221.847 Y71.403 E7.0249
G1 X222.879 Y71.204 E7.10135
G1 X224.449 Y70.992 E7.21659
G1 X226.03 Y70.885 E7.33182
G1 X227.092 Y70.873 E7.40908
G1 X228.665 Y70.943 E7.52351
G1 X230.237 Y71.118 E7.63861
G1 X231.797 Y71.399 E7.75385
G1 X232.82 Y71.642 E7.83029
G1 X234.34 Y72.095 E7.94568
G1 X235.329 Y72.451 E8.02212
G1 X236.79 Y73.071 E8.13751
G1 X237.735 Y73.536 E8.2141
G1 X238.66 Y74.043 E8.29084
G1 X239.56 Y74.59 E8.36743
G1 X240.868 Y75.489 E8.48282
G1 X241.701 Y76.133 E8.55941
G1 X242.507 Y76.815 E8.63615
G1 X243.281 Y77.532 E8.71288
G1 X244.022 Y78.283 E8.78963
G1 X244.729 Y79.066 E8.86636
G1 X245.399 Y79.878 E8.94295
G1 X246.339 Y81.157 E9.05834
G1 X246.915 Y82.039 E9.13493
G1 X247.451 Y82.948 E9.21167
G1 X247.947 Y83.879 E9.28841
G1 X248.399 Y84.83 E9.365
G1 X248.996 Y86.288 E9.47958
G1 X249.344 Y87.294 E9.55698
G1 X249.644 Y88.306 E9.63371
G1 X249.898 Y89.33 E9.71045
G1 X250.106 Y90.365 E9.78719
G1 X250.268 Y91.405 E9.86378
G1 X250.423 Y92.984 E9.97917
G1 X250.468 Y94.037 E10.05576
G1 X250.466 Y95.092 E10.1325
G1 X250.416 Y96.146 E10.20923
G1 X250.32 Y97.197 E10.28597
G1 X250.177 Y98.24 E10.36256
G1 X249.874 Y99.798 E10.47795
G1 X249.616 Y100.817 E10.55439
G1 X249.142 Y102.331 E10.66978
G1 X248.772 Y103.317 E10.74638
G1 X248.358 Y104.285 E10.82296
G1 X247.653 Y105.707 E10.93835
G1 X247.135 Y106.622 E11.0148
G1 X246.278 Y107.955 E11.13004
G1 X245.335 Y109.226 E11.24513
G1 X244.308 Y110.432 E11.36037
G1 X243.581 Y111.195 E11.43696
G1 X242.821 Y111.924 E11.51355
G1 X241.619 Y112.956 E11.62879
G1 X240.352 Y113.904 E11.74389
G1 X239.024 Y114.765 E11.85898
G1 X237.639 Y115.537 E11.97422
G1 X236.694 Y115.996 E12.05067
G1 X235.231 Y116.609 E12.16605
G1 X234.238 Y116.962 E12.24265
G1 X233.694 Y117.128 E12.28403
G1 X233.526 Y117.129 E12.29624
G1 X233.44 Y117.105 E12.30277
G1 X233.285 Y116.996 E12.31648
G1 X233.196 Y116.85 E12.32893
G1 X233.097 Y116.491 E12.35604
G1 X233.758 Y116.297 E12.4061
G1 X234.754 Y115.955 E12.48267
G1 X236.209 Y115.36 E12.59698
G1 X237.159 Y114.906 E12.67355
G1 X238.087 Y114.409 E12.75012
G1 X239.43 Y113.588 E12.86458
G1 X240.712 Y112.676 E12.97905
G1 X241.534 Y112.017 E13.05562
G1 X242.325 Y111.322 E13.13219
G1 X243.443 Y110.217 E13.2465
G1 X244.149 Y109.436 E13.32307
G1 X244.818 Y108.623 E13.39964
G1 X245.746 Y107.352 E13.5141
G1 X246.585 Y106.02 E13.62857
G1 X247.094 Y105.098 E13.70514
G1 X247.56 Y104.154 E13.78171
G1 X248.173 Y102.707 E13.89602
G1 X248.528 Y101.715 E13.97259
G1 X248.837 Y100.709 E14.04916
G1 X249.211 Y99.18 E14.16362
G1 X249.48 Y97.627 E14.27824
G1 X249.641 Y96.059 E14.39285
G1 X249.693 Y94.486 E14.50732
G1 X249.667 Y93.433 E14.58389
G1 X249.594 Y92.383 E14.66046
G1 X249.394 Y90.824 E14.77477
G1 X249.2 Y89.789 E14.85134
G1 X248.959 Y88.764 E14.92791
G1 X248.511 Y87.257 E15.04222
G1 X248.154 Y86.267 E15.11879
G1 X247.758 Y85.307 E15.19427
G1 X247.535 Y84.815 E15.23357
G1 X247.067 Y83.874 E15.30999
G1 X246.287 Y82.507 E15.42445
G1 X245.415 Y81.197 E15.53892
G1 X244.782 Y80.355 E15.61549
G1 X244.112 Y79.544 E15.69206
G1 X243.041 Y78.39 E15.80652
G1 X241.891 Y77.312 E15.92114
G1 X240.672 Y76.316 E16.0356
G1 X239.819 Y75.698 E16.11217
G1 X238.952 Y75.128 E16.18765
G1 X238.491 Y74.847 E16.22694
G1 X237.576 Y74.333 E16.30322
G1 X236.647 Y73.866 E16.37885
G1 X235.678 Y73.432 E16.45605
G1 X234.698 Y73.047 E16.53262
G1 X233.205 Y72.557 E16.64694
G1 X232.185 Y72.287 E16.72365
G1 X230.656 Y71.973 E16.83718
G1 X229.601 Y71.819 E16.91468
G1 X228.033 Y71.683 E17.02916
M73 P4 R13
G1 X226.459 Y71.654 E17.14362
G1 X225.407 Y71.696 E17.22019
G1 X224.358 Y71.786 E17.29676
G1 X222.8 Y72.01 E17.41122
G1 X221.261 Y72.341 E17.52569
G1 X220.244 Y72.621 E17.60241
G1 X218.756 Y73.126 E17.71672
G1 X217.779 Y73.52 E17.79329
G1 X216.822 Y73.959 E17.86986
G1 X215.434 Y74.696 E17.98417
G1 X214.532 Y75.243 E18.06089
G1 X213.235 Y76.135 E18.17536
G1 X212.003 Y77.114 E18.28982
G1 X211.216 Y77.817 E18.36654
G1 X210.105 Y78.93 E18.48086
G1 X209.404 Y79.718 E18.55757
G1 X208.429 Y80.951 E18.67189
G1 X207.824 Y81.813 E18.74846
G1 X207.26 Y82.701 E18.82503
G1 X206.494 Y84.075 E18.93934
G1 X206.035 Y85.022 E19.01591
G1 X205.62 Y85.99 E19.09248
G1 X205.085 Y87.468 E19.20679
G1 X204.784 Y88.477 E19.28336
G1 X204.53 Y89.496 E19.35977
G1 X204.28 Y90.737 E19.4518
G1 X204.16 Y91.162 E19.48392
G1 X204 Y91.569 E19.51572
G1 X203.802 Y91.954 E19.5472
G1 X203.43 Y92.499 E19.59521
G1 X202.981 Y92.983 E19.64322
G1 X202.649 Y93.261 E19.6747
G1 X202.288 Y93.508 E19.70651
G1 X201.904 Y93.717 E19.73832
G1 X201.505 Y93.885 E19.7698
G1 X200.865 Y94.065 E19.81814
G1 X200.437 Y94.129 E19.84962
G1 X200.005 Y94.151 E19.8811
G1 X199.342 Y94.101 E19.92943
G1 X198.917 Y94.015 E19.96091
G1 X198.504 Y93.888 E19.9924
G1 X197.898 Y93.615 E20.04073
G1 X197.532 Y93.391 E20.07188
G1 X197.012 Y92.977 E20.12022
G1 X196.71 Y92.667 E20.1517
G1 X196.44 Y92.329 E20.18319
G1 X196.093 Y91.762 E20.23151
G1 X195.84 Y91.162 E20.27888
G1 X195.72 Y90.737 E20.311
G1 X195.47 Y89.496 E20.40303
G1 X195.216 Y88.477 E20.47943
G1 X194.916 Y87.47 E20.55586
G1 X194.569 Y86.478 E20.63227
G1 X194.177 Y85.503 E20.70869
G1 X193.741 Y84.547 E20.78511
G1 X193.262 Y83.612 E20.86153
G1 X192.739 Y82.7 E20.93795
G1 X192.176 Y81.813 E21.01437
G1 X191.564 Y80.942 E21.09172
G1 X190.596 Y79.718 E21.20525
G1 X189.896 Y78.931 E21.28182
G1 X189.17 Y78.187 E21.35745
G1 X188.395 Y77.461 E21.43465
G1 X187.595 Y76.78 E21.51107
G1 X186.765 Y76.135 E21.58749
G1 X185.906 Y75.53 E21.66391
G1 X185.02 Y74.964 E21.74033
G1 X184.11 Y74.44 E21.81674
G1 X183.176 Y73.959 E21.89316
G1 X182.221 Y73.52 E21.96958
G1 X181.246 Y73.127 E22.046
G1 X180.253 Y72.777 E22.12257
G1 X178.743 Y72.342 E22.23688
G1 X177.716 Y72.108 E22.31346
G1 X176.669 Y71.921 E22.39081
G1 X175.119 Y71.735 E22.50434
G1 X174.068 Y71.669 E22.5809
G1 X173.017 Y71.652 E22.65732
G1 X171.967 Y71.683 E22.73374
G1 X170.919 Y71.762 E22.81016
G1 X169.874 Y71.89 E22.88673
G1 X168.327 Y72.169 E23.00104
G1 X167.304 Y72.416 E23.07761
G1 X166.294 Y72.709 E23.15403
G1 X165.3 Y73.048 E23.23045
G1 X164.32 Y73.433 E23.30701
G1 X162.89 Y74.091 E23.42148
G1 X161.509 Y74.847 E23.53594
G1 X160.616 Y75.405 E23.61252
G1 X159.752 Y76.002 E23.68893
G1 X158.915 Y76.638 E23.76535
G1 X158.107 Y77.313 E23.84192
G1 X156.959 Y78.39 E23.95638
G1 X155.889 Y79.544 E24.07085
G1 X155.218 Y80.355 E24.14742
G1 X154.586 Y81.195 E24.22383
G1 X153.994 Y82.063 E24.30025
G1 X153.441 Y82.959 E24.37682
G1 X152.693 Y84.344 E24.49129
G1 X152.041 Y85.779 E24.6059
G1 X151.49 Y87.253 E24.72037
G1 X151.179 Y88.257 E24.79679
G1 X151.038 Y88.779 E24.83609
G1 X150.8 Y89.789 E24.91157
G1 X150.607 Y90.822 E24.98799
G1 X150.461 Y91.863 E25.0644
G1 X150.363 Y92.909 E25.14082
G1 X150.314 Y93.959 E25.21724
G1 X150.313 Y95.009 E25.29366
G1 X150.36 Y96.059 E25.37008
G1 X150.455 Y97.106 E25.4465
G1 X150.598 Y98.147 E25.52291
G1 X150.789 Y99.18 E25.59933
G1 X151.027 Y100.203 E25.67575
G1 X151.312 Y101.215 E25.75217
G1 X151.643 Y102.212 E25.82859
G1 X152.02 Y103.193 E25.905
G1 X152.441 Y104.156 E25.98142
G1 X152.906 Y105.098 E26.05784
G1 X153.414 Y106.018 E26.13426
G1 X153.958 Y106.904 E26.20989
G1 X154.554 Y107.783 E26.28709
G1 X155.184 Y108.624 E26.36351
G1 X155.851 Y109.436 E26.43993
G1 X156.555 Y110.216 E26.51635
G1 X157.295 Y110.963 E26.59277
G1 X158.068 Y111.675 E26.66919
G1 X158.872 Y112.351 E26.74561
G1 X159.707 Y112.989 E26.82202
G1 X160.57 Y113.588 E26.89844
G1 X161.461 Y114.146 E26.97486
G1 X162.375 Y114.664 E27.05128
G1 X163.313 Y115.138 E27.1277
G1 X164.271 Y115.569 E27.20412
G1 X165.258 Y115.96 E27.28132
G1 X166.242 Y116.297 E27.35695
G1 X166.905 Y116.491 E27.40718
G1 X166.826 Y116.784 E27.42924
G1 X166.746 Y116.958 E27.44312
G1 X166.606 Y117.083 E27.45683
G1 X166.513 Y117.121 E27.46411
G1 X166.425 Y117.136 E27.47063
G1 X166.239 Y117.113 E27.48422
G1 X165.263 Y116.791 E27.55899
G1 X164.276 Y116.416 E27.63573
G1 X163.308 Y115.997 E27.71246
G1 X162.359 Y115.536 E27.7892
G1 X161.431 Y115.032 E27.86594
G1 X160.527 Y114.488 E27.94268
G1 X159.648 Y113.904 E28.01942
G1 X158.796 Y113.282 E28.09615
G1 X157.973 Y112.622 E28.17289
G1 X157.18 Y111.926 E28.24963
G1 X156.419 Y111.195 E28.32637
G1 X155.691 Y110.431 E28.4031
G1 X154.998 Y109.635 E28.47984
G1 X154.34 Y108.808 E28.55672
G1 X153.427 Y107.517 E28.67167
G1 X152.86 Y106.614 E28.74922
G1 X152.346 Y105.706 E28.82515
G1 X151.867 Y104.765 E28.90189
G1 X151.43 Y103.804 E28.97863
G1 X151.037 Y102.825 E29.05536
G1 X150.685 Y101.819 E29.13291
G1 X150.385 Y100.821 E29.20869
G1 X150.013 Y99.278 E29.32408
G1 X149.824 Y98.242 E29.40067
G1 X149.681 Y97.199 E29.47726
