; generated by PrusaSlicer 2.7.4+win64 on 2024-04-11 at 10:13:04 UTC


;
;
; 

; external perimeters extrusion width = 0.45mm
; perimeters extrusion width = 0.45mm
; infill extrusion width = 0.45mm
; solid infill extrusion width = 0.45mm
; top infill extrusion width = 0.40mm
; first layer extrusion width = 0.42mm

M73 P0 R13
M73 Q0 S13
M201 X1000 Y1000 Z200 E5000 ; sets maximum accelerations, mm/sec^2
M203 X200 Y200 Z12 E120 ; sets maximum feedrates, mm / sec
M204 S1250 T1250 ; sets acceleration (S) and retract acceleration (R), mm/sec^2
M205 X8.00 Y8.00 Z0.40 E4.50 ; sets the jerk limits, mm/sec
M205 S0 T0 ; sets the minimum extruding and travel feed rate, mm/sec

; printing object Markierung id:0 copy 0
; stop printing object Markierung id:0 copy 0

;TYPE:Custom
M862.3 P "MK3S" ; printer model check
M862.1 P0.4 ; nozzle diameter check
M115 U3.13.3 ; tell printer latest fw version
G90 ; use absolute coordinates
M83 ; extruder relative mode
M104 S255 ; set extruder temp
M140 S80 ; set bed temp
M190 S80 ; wait for bed temp
M109 S255 ; wait for extruder temp
G28 W ; home all without mesh bed level
G80 X71.602 Y78.9405 W106.796 H52.1189 ; mesh bed levelling

G1 Z0.2 F720
G1 Y-3 F1000 ; go outside print area
G92 E0
G1 X60 E9 F1000 ; intro line
G1 X100 E12.5 F1000 ; intro line

G92 E0
M221 S95

; Don't change E values below. Excessive value can damage the printer.
M907 E430 ; set extruder motor current
G21 ; set units to millimeters
G90 ; use absolute coordinates
M83 ; use relative distances for extrusion

M900 K0.04 ; Filament gcode LA 1.5
M900 K20 ; Filament gcode LA 1.0




M107
;LAYER_CHANGE
;Z:0.2
;HEIGHT:0.2
G1 E-.8 F2100
G1 Z.6 F720
G1 X80.345 Y86.06 F10800
G1 Z.2 F720
G1 E.8 F2100
M204 S800
;TYPE:Skirt/Brim
;WIDTH:0.42
G1 F1200
G1 X82.12 Y84.571 E.07264
G1 X84.057 Y83.219 E.07406
G1 X86.645 Y81.778 E.09288
G1 X88.803 Y80.846 E.0737
G1 X91.704 Y79.932 E.09537
G1 X94.624 Y79.367 E.09325
G1 X96.965 Y79.155 E.0737
G1 X151.582 Y79.129 E1.71248
M73 Q1 S13
G1 X153.795 Y79.201 E.06942
M73 P1 R13
G1 X156.061 Y79.469 E.07154
G1 X158.296 Y79.932 E.07156
G1 X160.471 Y80.583 E.07118
G1 X161.968 Y81.153 E.05022
G1 X164.035 Y82.12 E.07155
G1 X166.011 Y83.262 E.07156
G1 X167.88 Y84.571 E.07154
G1 X169.613 Y86.021 E.07085
G1 X171.23 Y87.631 E.07155
G1 X172.675 Y89.339 E.07015
G1 X173.994 Y91.201 E.07155
G1 X175.159 Y93.19 E.07227
G1 X176.127 Y95.231 E.07083
G1 X176.924 Y97.37 E.07157
G1 X177.533 Y99.569 E.07154
G1 X177.95 Y101.813 E.07156
G1 X178.171 Y104.084 E.07154
G1 X178.208 Y105.709 E.05096
G1 X178.096 Y107.954 E.07048
G1 X177.798 Y110.147 E.06939
G1 X177.299 Y112.374 E.07156
G1 X176.61 Y114.55 E.07157
G1 X175.736 Y116.658 E.07155
G1 X174.682 Y118.682 E.07155
G1 X173.827 Y120.064 E.05095
G1 X172.508 Y121.884 E.07048
G1 X171.015 Y123.61 E.07155
G1 X169.378 Y125.2 E.07155
G1 X167.61 Y126.643 E.07155
G1 X165.724 Y127.928 E.07156
G1 X163.734 Y129.044 E.07154
G1 X160.944 Y130.258 E.0954
G1 X159.367 Y130.777 E.05205
G1 X158.61 Y130.871 E.02392
G1 X91.09 Y130.855 E2.11704
G1 X90.467 Y130.733 E.0199
M73 P2 R13
M73 Q2 S13
G1 X88.992 Y130.234 E.04882
G1 X86.205 Y129.013 E.0954
G1 X83.635 Y127.518 E.09322
G1 X81.197 Y125.698 E.09539
G1 X79.467 Y124.107 E.07369
G1 X77.492 Y121.884 E.09324
G1 X75.743 Y119.394 E.09541
G1 X74.596 Y117.343 E.07368
G1 X73.413 Y114.614 E.09326
G1 X72.701 Y112.374 E.0737
G1 X72.196 Y110.113 E.07264
G1 X71.845 Y107.195 E.09215
G1 X71.799 Y104.845 E.0737
G1 X72.04 Y101.881 E.09324
G1 X72.467 Y99.569 E.07372
G1 X73.087 Y97.337 E.07263
G1 X74.147 Y94.608 E.09179
G1 X75.218 Y92.503 E.07405
G1 X76.827 Y90.002 E.09324
G1 X78.292 Y88.164 E.0737
G1 X80.303 Y86.103 E.09029
M204 S1000
;WIPE_START
G1 F8640
G1 X80.345 Y86.06 E-.01388
G1 X82.12 Y84.571 E-.53496
G1 X83.012 Y83.949 E-.25116
;WIPE_END
G1 Z.6 F720
; printing object Markierung id:0 copy 0
G1 X158.252 Y127.569 F10800
G1 Z.2 F720
G1 E.8 F2100
M204 S800
;TYPE:External perimeter
;WIDTH:0.574916
G1 F1200
G1 X159.096 Y127.31 E.03905
;WIDTH:0.576269
G1 X160.373 Y126.842 E.06032
;WIDTH:0.571799
G1 X161.027 Y126.571 E.03113
;WIDTH:0.57634
G1 X162.241 Y125.996 E.05958
G1 X162.813 Y125.69 E.02877
G1 X163.439 Y125.342 E.03177
G1 X164.596 Y124.621 E.06047
;WIDTH:0.572776
G1 X165.694 Y123.84 E.05936
;WIDTH:0.570845
G1 X166.247 Y123.409 E.03078
;WIDTH:0.576087
G1 X167.626 Y122.196 E.08142
;WIDTH:0.57589
G1 X168.572 Y121.255 E.05913
;WIDTH:0.575683
G1 X169.628 Y120.052 E.07091
;WIDTH:0.574863
G1 X170.46 Y118.971 E.06034
;WIDTH:0.570228
G1 X170.853 Y118.408 E.0301
;WIDTH:0.567679
G1 X171.585 Y117.257 E.05952
;WIDTH:0.570309
G1 X172.247 Y116.068 E.05968
G1 X172.552 Y115.453 E.0301
;WIDTH:0.575863
G1 X173.171 Y114.042 E.06828
;WIDTH:0.573712
G1 X173.58 Y112.943 E.05176
;WIDTH:0.572267
G1 X173.633 Y112.787 E.00725
;WIDTH:0.57305
G1 X173.83 Y112.166 E.02872
G1 X174.156 Y110.979 E.05426
;WIDTH:0.571998
G1 X174.181 Y110.876 E.00466
;WIDTH:0.572386
G1 X174.325 Y110.237 E.02884
;WIDTH:0.576379
G1 X174.553 Y108.97 E.0571
G1 X174.644 Y108.267 E.03144
G1 X174.72 Y107.602 E.02969
G1 X174.806 Y106.244 E.06036
;WIDTH:0.571122
G1 X174.818 Y105.558 E.03013
;WIDTH:0.57259
G1 X174.78 Y104.195 E.06005
;WIDTH:0.572925
G1 X174.664 Y102.852 E.05941
;WIDTH:0.569764
G1 X174.572 Y102.161 E.03054
;WIDTH:0.572303
G1 X174.493 Y101.656 E.0225
;WIDTH:0.575963
G1 X174.188 Y100.164 E.0675
;WIDTH:0.574327
G1 X173.828 Y98.834 E.06088
;WIDTH:0.574647
G1 X173.487 Y97.81 E.04772
;WIDTH:0.575335
G1 X172.888 Y96.289 E.07237
;WIDTH:0.574821
G1 X172.462 Y95.379 E.04444
G1 X171.99 Y94.463 E.04557
;WIDTH:0.57271
G1 X171.511 Y93.629 E.04237
;WIDTH:0.574176
G1 X171.163 Y93.075 E.0289
G1 X170.532 Y92.14 E.04983
;WIDTH:0.572421
G1 X170.409 Y91.97 E.00924
;WIDTH:0.573571
G1 X170.017 Y91.45 E.02873
G1 X169.27 Y90.53 E.05229
;WIDTH:0.573112
G1 X168.35 Y89.521 E.0602
;WIDTH:0.572735
G1 X168.274 Y89.444 E.00477
;WIDTH:0.576248
G1 X167.373 Y88.572 E.0556
;WIDTH:0.571695
G1 X166.32 Y87.66 E.06125
;WIDTH:0.576327
G1 X165.254 Y86.848 E.05943
;WIDTH:0.576535
G1 X164.113 Y86.075 E.06115
;WIDTH:0.57246
G1 X162.941 Y85.382 E.05995
;WIDTH:0.570035
G1 X162.338 Y85.063 E.0299
;WIDTH:0.570701
G1 X161.724 Y84.757 E.03011
;WIDTH:0.576129
G1 X160.484 Y84.212 E.06005
;WIDTH:0.572351
G1 X160.015 Y84.026 E.02221
;WIDTH:0.575956
G1 X159.402 Y83.808 E.02884
M73 Q3 S13
G1 X158.131 Y83.406 E.05908
G1 X157.234 Y83.163 E.04119
;WIDTH:0.570267
G1 X156.567 Y83.014 E.02997
;WIDTH:0.574891
G1 X155.225 Y82.773 E.06031
;WIDTH:0.575216
G1 X153.576 Y82.59 E.07343
;WIDTH:0.574823
G1 X152.508 Y82.531 E.04731
;WIDTH:0.574171
G1 X151.594 Y82.525 E.04038
G1 X150.458 Y82.563 E.05021
;WIDTH:0.566993
G1 X149.103 Y82.684 E.05928
M73 P3 R13
;WIDTH:0.572236
G1 X148.281 Y82.796 E.03651
;WIDTH:0.573045
G1 X147.636 Y82.908 E.02886
;WIDTH:0.576211
G1 X146.414 Y83.169 E.05541
G1 X145.116 Y83.525 E.05968
;WIDTH:0.571784
G1 X144.428 Y83.745 E.03176
;WIDTH:0.576381
G1 X143.17 Y84.217 E.0596
;WIDTH:0.576264
G1 X141.938 Y84.758 E.05967
;WIDTH:0.571275
G1 X141.311 Y85.07 E.03077
;WIDTH:0.57264
G1 X140.116 Y85.73 E.06013
;WIDTH:0.576167
G1 X138.979 Y86.452 E.05972
;WIDTH:0.57058
G1 X138.413 Y86.844 E.03021
;WIDTH:0.576014
G1 X136.972 Y87.978 E.08128
;WIDTH:0.575838
G1 X136.302 Y88.562 E.03938
;WIDTH:0.575565
G1 X135.513 Y89.327 E.04867
G1 X134.847 Y90.022 E.04263
;WIDTH:0.574953
G1 X134.17 Y90.803 E.04572
G1 X133.758 Y91.313 E.029
G1 X133.147 Y92.122 E.04485
;WIDTH:0.572724
G1 X132.965 Y92.38 E.01391
;WIDTH:0.574483
G1 X132.603 Y92.92 E.02873
G1 X132.023 Y93.849 E.04841
;WIDTH:0.57251
G1 X131.902 Y94.059 E.01067
;WIDTH:0.573914
G1 X131.587 Y94.629 E.02875
G1 X131.065 Y95.657 E.0509
;WIDTH:0.573567
G1 X130.99 Y95.821 E.00796
;WIDTH:0.576069
G1 X130.519 Y96.905 E.0524
;WIDTH:0.572017
G1 X130.04 Y98.203 E.06087
;WIDTH:0.576264
G1 X129.632 Y99.55 E.06242
;WIDTH:0.571724
G1 X129.477 Y100.17 E.0281
;WIDTH:0.57626
G1 X129.13 Y101.804 E.07408
;WIDTH:0.574734
G1 X128.974 Y102.293 E.0227
;WIDTH:0.575906
G1 X128.746 Y102.784 E.02399
;WIDTH:0.578894
G1 X128.469 Y103.227 E.02328
G1 X128.144 Y103.627 E.02297
;WIDTH:0.578045
G1 X127.921 Y103.841 E.01375
;WIDTH:0.582076
G1 X127.502 Y104.198 E.02468
G1 X127.056 Y104.487 E.02383
;WIDTH:0.573978
G1 X126.535 Y104.729 E.02537
;WIDTH:0.582706
G1 X126.052 Y104.88 E.02271
G1 X125.523 Y104.984 E.0242
;WIDTH:0.573318
G1 X124.934 Y105.013 E.02601
;WIDTH:0.575987
G1 X124.169 Y104.933 E.03409
;WIDTH:0.580396
G1 X123.656 Y104.795 E.02374
G1 X123.155 Y104.594 E.02413
;WIDTH:0.581706
G1 X122.456 Y104.168 E.03667
G1 X122.048 Y103.829 E.02376
;WIDTH:0.582466
G1 X121.686 Y103.427 E.02427
G1 X121.361 Y102.97 E.02516
;WIDTH:0.574616
G1 X121.012 Y102.254 E.03522
G1 X120.856 Y101.759 E.02295
;WIDTH:0.572005
G1 X120.529 Y100.189 E.07055
;WIDTH:0.571774
G1 X120.522 Y100.158 E.0014
;WIDTH:0.571123
G1 X120.352 Y99.494 E.0301
;WIDTH:0.572556
G1 X119.957 Y98.187 E.06013
;WIDTH:0.576225
G1 X119.482 Y96.908 E.0605
;WIDTH:0.576061
G1 X118.72 Y95.229 E.08174
;WIDTH:0.575913
G1 X118.094 Y94.061 E.05873
;WIDTH:0.575734
G1 X117.624 Y93.27 E.04076
;WIDTH:0.568155
G1 X117.252 Y92.697 E.02984
;WIDTH:0.574827
G1 X116.644 Y91.84 E.04647
;WIDTH:0.575169
G1 X116.246 Y91.319 E.02902
G1 X115.608 Y90.535 E.04473
;WIDTH:0.574841
G1 X114.689 Y89.527 E.06033
;WIDTH:0.574494
G1 X113.722 Y88.584 E.0597
;WIDTH:0.572657
G1 X113.527 Y88.407 E.0116
;WIDTH:0.57398
G1 X113.036 Y87.981 E.0287
G1 X112.144 Y87.258 E.0507
;WIDTH:0.573556
G1 X111.037 Y86.461 E.06019
;WIDTH:0.573049
G1 X110.921 Y86.385 E.00611
;WIDTH:0.576312
G1 X109.87 Y85.724 E.05507
G1 X108.675 Y85.064 E.06055
G1 X108.028 Y84.75 E.0319
G1 X107.444 Y84.477 E.02859
G1 X106.18 Y83.963 E.06052
G1 X104.887 Y83.526 E.06053
;WIDTH:0.576187
G1 X103.571 Y83.166 E.0605
G1 X102.236 Y82.884 E.0605
;WIDTH:0.576082
G1 X100.901 Y82.685 E.05984
;WIDTH:0.575903
G1 X99.545 Y82.563 E.06034
;WIDTH:0.568543
G1 X98.848 Y82.531 E.03049
;WIDTH:0.574399
G1 X97.484 Y82.531 E.06028
;WIDTH:0.574738
G1 X96.122 Y82.612 E.06034
;WIDTH:0.575044
G1 X94.763 Y82.774 E.06056
;WIDTH:0.567622
G1 X93.421 Y83.017 E.0595
;WIDTH:0.567375
G1 X92.094 Y83.338 E.05954
;WIDTH:0.56717
G1 X90.79 Y83.738 E.05946
;WIDTH:0.566992
G1 X89.515 Y84.212 E.05928
;WIDTH:0.573273
G1 X88.757 Y84.537 E.03637
;WIDTH:0.576152
G1 X87.664 Y85.062 E.05376
;WIDTH:0.576372
G1 X86.461 Y85.726 E.06095
;WIDTH:0.572054
G1 X85.841 Y86.105 E.03197
;WIDTH:0.576375
G1 X84.748 Y86.846 E.05857
;WIDTH:0.571116
G1 X84.195 Y87.253 E.03016
;WIDTH:0.57182
G1 X83.147 Y88.106 E.05943
;WIDTH:0.576502
G1 X82.136 Y89.036 E.06095
;WIDTH:0.569847
G1 X81.651 Y89.52 E.03002
;WIDTH:0.573115
G1 X80.733 Y90.527 E.06007
;WIDTH:0.56942
G1 X80.302 Y91.046 E.02953
;WIDTH:0.574713
G1 X79.596 Y91.967 E.05131
;WIDTH:0.573791
G1 X79.082 Y92.698 E.03945
;WIDTH:0.568419
G1 X78.709 Y93.271 E.02987
;WIDTH:0.574518
G1 X78.018 Y94.447 E.06029
;WIDTH:0.574767
G1 X77.404 Y95.649 E.05969
;WIDTH:0.57263
G1 X76.985 Y96.584 E.04513
;WIDTH:0.574814
G1 X76.381 Y98.181 E.07551
;WIDTH:0.572506
G1 X76.296 Y98.44 E.012
;WIDTH:0.574275
G1 X76.105 Y99.071 E.02913
G1 X75.819 Y100.134 E.04864
;WIDTH:0.574154
G1 X75.537 Y101.484 E.06092
;WIDTH:0.57347
G1 X75.338 Y102.834 E.0602
;WIDTH:0.57218
G1 X75.259 Y103.633 E.03533
;WIDTH:0.572545
G1 X75.215 Y104.286 E.02882
G1 X75.182 Y105.543 E.05538
;WIDTH:0.572328
G1 X75.225 Y106.921 E.06069
;WIDTH:0.571429
G1 X75.281 Y107.617 E.03069
;WIDTH:0.57627
G1 X75.445 Y108.957 E.05987
;WIDTH:0.576518
G1 X75.69 Y110.31 E.06101
;WIDTH:0.570895
G1 X75.843 Y110.978 E.03009
;WIDTH:0.572944
G1 X76.204 Y112.279 E.0595
;WIDTH:0.573524
G1 X76.649 Y113.582 E.06075
;WIDTH:0.575825
G1 X77.083 Y114.641 E.05071
G1 X77.644 Y115.842 E.05874
;WIDTH:0.57563
G1 X78.081 Y116.675 E.04167
;WIDTH:0.567973
G1 X78.421 Y117.267 E.02981
;WIDTH:0.574872
G1 X79.146 Y118.406 E.05972
;WIDTH:0.57532
G1 X79.956 Y119.526 E.06119
;WIDTH:0.56746
G1 X80.82 Y120.582 E.05951
;WIDTH:0.567238
G1 X81.743 Y121.582 E.05933
;WIDTH:0.573754
G1 X82.366 Y122.193 E.03852
G1 X83.229 Y122.973 E.05135
;WIDTH:0.573324
G1 X84.292 Y123.829 E.06019
;WIDTH:0.572867
G1 X85.403 Y124.62 E.0601
;WIDTH:0.57184
G1 X85.987 Y124.995 E.03052
;WIDTH:0.571954
G1 X86.602 Y125.368 E.03164
;WIDTH:0.576319
G1 X87.773 Y126.003 E.05908
G1 X89.004 Y126.582 E.06034
;WIDTH:0.571077
G1 X89.637 Y126.849 E.03017
;WIDTH:0.57632
G1 X90.918 Y127.315 E.06046
;WIDTH:0.574187
G1 X91.747 Y127.57 E.03831
G1 X91.695 Y127.755 E.00849
G1 X91.606 Y127.888 E.00707
G1 X91.486 Y127.966 E.00632
;WIDTH:0.574917
G1 X91.281 Y127.986 E.00911
G1 X90.731 Y127.804 E.02563
;WIDTH:0.57632
G1 X89.38 Y127.315 E.06372
;WIDTH:0.571689
G1 X88.777 Y127.055 E.02887
;WIDTH:0.576375
G1 X88.134 Y126.768 E.03123
G1 X87.515 Y126.46 E.03067
G1 X86.288 Y125.796 E.06188
;WIDTH:0.57062
G1 X85.701 Y125.434 E.03026
;WIDTH:0.5701
G1 X85.101 Y125.052 E.03118
;WIDTH:0.572867
G1 X83.965 Y124.242 E.06148
;WIDTH:0.573324
G1 X82.88 Y123.367 E.06147
;WIDTH:0.573754
G1 X81.85 Y122.431 E.06143
;WIDTH:0.575706
G1 X81.042 Y121.615 E.05087
G1 X80.142 Y120.601 E.06006
;WIDTH:0.575489
G1 X79.306 Y119.543 E.05971
;WIDTH:0.57532
G1 X78.72 Y118.714 E.04494
;WIDTH:0.574872
G1 X77.978 Y117.549 E.06109
;WIDTH:0.5681
G1 X77.612 Y116.91 E.03216
M73 Q4 S13
;WIDTH:0.567315
G1 X76.971 Y115.671 E.06083
;WIDTH:0.567112
G1 X76.409 Y114.402 E.06049
;WIDTH:0.573524
G1 X76.09 Y113.596 E.03824
G1 X75.705 Y112.449 E.05338
;WIDTH:0.572944
G1 X75.336 Y111.119 E.06083
;WIDTH:0.571999
G1 X75.303 Y110.993 E.00573
;WIDTH:0.572409
G1 X75.155 Y110.335 E.02969
;WIDTH:0.576518
G1 X74.924 Y109.013 E.05954
;WIDTH:0.57627
G1 X74.825 Y108.324 E.03087
M73 P4 R13
G1 X74.758 Y107.65 E.03004
;WIDTH:0.570946
G1 X74.698 Y106.94 E.03128
;WIDTH:0.572328
G1 X74.655 Y105.532 E.06201
;WIDTH:0.572545
G1 X74.692 Y104.161 E.0604
;WIDTH:0.570705
G1 X74.817 Y102.762 E.06164
;WIDTH:0.57347
G1 X75.021 Y101.383 E.0615
;WIDTH:0.574154
G1 X75.31 Y100.004 E.06224
;WIDTH:0.574275
G1 X75.668 Y98.677 E.06073
;WIDTH:0.570238
G1 X75.885 Y98.008 E.03084
;WIDTH:0.574814
G1 X76.364 Y96.703 E.06148
;WIDTH:0.57023
G1 X76.64 Y96.058 E.03076
;WIDTH:0.574767
G1 X77.062 Y95.141 E.04464
G1 X77.55 Y94.208 E.04656
;WIDTH:0.574518
G1 X78.256 Y93.005 E.06166
;WIDTH:0.568565
G1 X78.658 Y92.39 E.03211
;WIDTH:0.571803
G1 X79.259 Y91.53 E.04614
;WIDTH:0.574713
G1 X79.898 Y90.712 E.0459
;WIDTH:0.573115
G1 X80.43 Y90.069 E.03679
G1 X81.261 Y89.165 E.05413
;WIDTH:0.571951
G1 X81.785 Y88.646 E.03244
;WIDTH:0.576502
G1 X82.837 Y87.675 E.06352
;WIDTH:0.57182
G1 X83.862 Y86.843 E.05806
;WIDTH:0.571343
G1 X84.458 Y86.41 E.03237
;WIDTH:0.576375
G1 X85.611 Y85.625 E.06187
;WIDTH:0.570533
G1 X86.21 Y85.266 E.03064
;WIDTH:0.576372
G1 X86.727 Y84.964 E.02656
G1 X87.444 Y84.586 E.03595
;WIDTH:0.576152
G1 X87.931 Y84.338 E.02423
G1 X88.689 Y83.989 E.037
;WIDTH:0.569351
G1 X89.334 Y83.72 E.03059
;WIDTH:0.575941
G1 X89.799 Y83.533 E.02221
G1 X91.08 Y83.087 E.06012
;WIDTH:0.575767
G1 X92.384 Y82.715 E.06008
;WIDTH:0.575559
G1 X93.708 Y82.42 E.06008
;WIDTH:0.575312
G1 X95.039 Y82.201 E.05971
;WIDTH:0.575044
G1 X96.06 Y82.091 E.04544
;WIDTH:0.574738
G1 X97.453 Y82.006 E.06171
;WIDTH:0.574399
G1 X98.848 Y82.005 E.06165
;WIDTH:0.572493
G1 X99.598 Y82.041 E.03306
;WIDTH:0.575903
G1 X100.46 Y82.105 E.03831
G1 X100.973 Y82.166 E.0229
;WIDTH:0.576082
G1 X101.806 Y82.276 E.03725
G1 X102.353 Y82.373 E.02463
;WIDTH:0.57623
G1 X103.139 Y82.525 E.0355
G1 X104.456 Y82.85 E.06015
G1 X105.752 Y83.25 E.06015
G1 X107.023 Y83.725 E.06017
G1 X108.264 Y84.272 E.06014
G1 X109.472 Y84.889 E.06015
G1 X110.642 Y85.575 E.06014
G1 X111.34 Y86.03 E.03695
;WIDTH:0.573556
G1 X112.471 Y86.846 E.06154
;WIDTH:0.57398
G1 X113.549 Y87.721 E.06131
;WIDTH:0.570352
G1 X114.082 Y88.202 E.03149
;WIDTH:0.574494
G1 X115.07 Y89.165 E.06098
;WIDTH:0.574841
G1 X116.009 Y90.197 E.06171
;WIDTH:0.575169
G1 X116.657 Y90.981 E.04501
G1 X117.075 Y91.529 E.0305
;WIDTH:0.574827
G1 X117.679 Y92.391 E.04655
;WIDTH:0.568288
G1 X118.079 Y93.01 E.0322
;WIDTH:0.567209
G1 X118.785 Y94.213 E.06081
;WIDTH:0.575913
G1 X119.2 Y94.996 E.03927
G1 X119.419 Y95.457 E.02262
;WIDTH:0.576061
G1 X119.77 Y96.226 E.03747
G1 X119.977 Y96.735 E.02436
;WIDTH:0.576225
G1 X120.27 Y97.488 E.03583
