; HEADER_BLOCK_START
; generated by OrcaSlicer 2.1.1 on 2024-07-23 at 12:03:56
; total layer number: 115
; filament_density: 1.27
; filament_diameter: 1.75
; max_z_height: 23.00
; HEADER_BLOCK_END

; THUMBNAIL_BLOCK_START

;
; THUMBNAIL_BLOCK_END

; THUMBNAIL_BLOCK_START

;
; THUMBNAIL_BLOCK_END

; external perimeters extrusion width = 0.60mm
; perimeters extrusion width = 0.67mm
; infill extrusion width = 0.67mm
; solid infill extrusion width = 0.60mm
; top infill extrusion width = 0.60mm
; support material extrusion width = 0.60mm
; first layer extrusion width = 0.72mm

; external perimeters extrusion width = 0.60mm
; perimeters extrusion width = 0.67mm
; infill extrusion width = 0.67mm
; solid infill extrusion width = 0.60mm
; top infill extrusion width = 0.60mm
; support material extrusion width = 0.60mm
; first layer extrusion width = 0.72mm

; external perimeters extrusion width = 0.60mm
; perimeters extrusion width = 0.67mm
; infill extrusion width = 0.67mm
; solid infill extrusion width = 0.60mm
; top infill extrusion width = 0.60mm
; support material extrusion width = 0.60mm
; first layer extrusion width = 0.72mm

; EXECUTABLE_BLOCK_START
M73 P0 R45
M201 X1500 Y1500 Z200 E5000
M203 X200 Y200 Z25 E60
M204 P1250 R1250 T1250
M205 X10.00 Y10.00 Z0.40 E4.50 ; sets the jerk limits, mm/sec
;TYPE:Custom
G21 ; set units to millimeters
G90 ; use absolute coordinates
M82 ; use absolute distances for extrusion
G92 E0 ; zero extruder
M107 ; turn off fan

M301 E P19.56 I2.08 D46.07 ; set PID Extruder1
M304 P132.91 I11.48 D372.91 ; set PID Bed

G28 X0 Y0                ;move X/Y to min endstops
G28 Z0                   ;move Z to min endstops

G0 F4200 X0 Y2

M6013 S40                ;set chamber temperature

M190 S80 ; set bed temperature and wait for it to be reached

M104 S245 ; set temperature
M109 S245 ; set temperature and wait for it to be reached

M900 W0.6 H0.2 D1.75  ;set linear advance ratio

;Add Clear Nozzle
G92 E0                   ;zero the extruded length
M83                      ;set E value is relative 
G0 F4200 X0 Y2 

M420 S ;turn bed levelling on
G0 F1500 X40 Y2 Z0.4           ;move a bit while down the Z 
M221 S200             ;set flow is 200% 
G1 F200 X60 E+8          ;extrude amont filament to clean the hotend 
M221 S100             ;reset flow is 100% 

M82                      ;set E value is absolute
G92 E0                   ;zero the extruded length again

;Add End
G0 Z1 F4200           ;move the platform down 15mm
;Put printing message on LCD screen
M117 Printing...
G90
G21
M82 ; use absolute distances for extrusion
G92 E0
; filament start gcode
M900 K18
M106 S0
;LAYER_CHANGE
;Z:0.2
;HEIGHT:0.2
;BEFORE_LAYER_CHANGE
;0.2


G1 E-.4 F2100
G92 E0
;AFTER_LAYER_CHANGE
;G92 E0   ;zero the extruded length again
;0.2
;_SET_FAN_SPEED_CHANGING_LAYER
M204 S800
M205 X4 Y4
G1 X178.054 Y111.216 F5400
G1 Z.4
G1 Z.2
G1 E.4 F2100
;TYPE:Skirt
;WIDTH:0.72
G1 F3000
G1 X178.962 Y109.763 E.49648
G1 X179.763 Y108.862 E.56433
G1 X180.721 Y108.082 E.63388
G1 X182.466 Y107.143 E.74545
G1 X183.645 Y106.774 E.815
G1 X185.077 Y106.58 E.89635
G1 X205.809 Y106.576 E2.06354
G1 X207.399 Y106.69 E2.15329
G1 X208.571 Y106.969 E2.22114
G1 X209.712 Y107.442 E2.29069
G1 X211.161 Y108.357 E2.38717
G1 X212.399 Y109.585 E2.48535
G1 X213.07 Y110.519 E2.55006
G1 X240.455 Y154.254 E5.45524
G1 X240.945 Y155.363 E5.52349
G1 X241.135 Y156.583 E5.593
G1 X241.129 Y163.568 E5.98622
G1 X240.993 Y164.465 E6.03731
G1 X240.707 Y165.273 E6.08554
G1 X240.264 Y166.034 E6.13511
G1 X239.808 Y166.58 E6.17518
G1 X223.04 Y183.349 E7.51028
G1 X222.222 Y183.985 E7.56863
G1 X221.264 Y184.433 E7.62818
G1 X220.379 Y184.637 E7.67928
G1 X183.209 Y188.804 E9.78504
G1 X173.111 Y188.808 E10.35357
G1 X171.239 Y188.498 E10.46041
G1 X169.523 Y187.887 E10.5629
G1 X168.432 Y187.299 E10.63271
G1 X167.6 Y186.725 E10.68961
G1 X166.774 Y186.006 E10.75127
G1 X166.076 Y185.21 E10.81087
G1 X165.307 Y183.972 E10.89294
G1 X164.932 Y183.088 E10.94697
G1 X164.641 Y182.008 E11.00995
G1 X164.522 Y181.117 E11.06058
G1 X164.5 Y141.514 E13.29018
G1 X164.66 Y140.001 E13.37585
G1 X164.954 Y138.949 E13.43734
G1 X165.245 Y138.245 E13.48025
G1 X178.028 Y111.27 E15.1608
; printing object Standfuss1.step id:2560218609128 copy 0
G1 E14.7608 F2100
G92 E0
G1 X176.894 Y118.818 Z.6 F5400
G1 X172.161 Y150.315 Z.6
G1 Z.2
G1 E.4 F2100
;TYPE:Support
G1 F1200
G1 X172.656 Y150.412 E.42835
G1 X173.428 Y150.884 E.47928
G1 X173.975 Y151.655 E.53255
G1 X174.175 Y152.577 E.58566
G1 X173.997 Y153.503 E.63871
G1 X173.473 Y154.28 E.69151
G1 X173.918 Y154.925 E.73558
G1 X174.106 Y155.846 E.78852
G1 X173.918 Y156.767 E.84147
G1 X173.76 Y156.996 E.8571
G1 X173.918 Y157.225 E.87274
G1 X174.106 Y158.146 E.92569
G1 X173.918 Y159.067 E.97863
G1 X173.76 Y159.296 E.99427
G1 X173.918 Y159.525 E1.00991
G1 X174.106 Y160.446 E1.06285
G1 X173.918 Y161.367 E1.11579
G1 X173.76 Y161.596 E1.13143
G1 X173.918 Y161.825 E1.14707
G1 X174.106 Y162.746 E1.20001
G1 X173.918 Y163.667 E1.25295
G1 X173.76 Y163.896 E1.26859
G1 X173.918 Y164.125 E1.28423
G1 X174.106 Y165.046 E1.33717
G1 X173.918 Y165.967 E1.39012
G1 X173.76 Y166.196 E1.40576
G1 X173.918 Y166.425 E1.42139
G1 X174.106 Y167.346 E1.47434
G1 X173.897 Y168.366 E1.53297
G1 X174.075 Y168.628 E1.55075
G1 X174.256 Y169.553 E1.60382
G1 X174.058 Y170.475 E1.65693
G1 X173.514 Y171.248 E1.71015
G1 X172.707 Y171.744 E1.76345
G1 X171.771 Y171.882 E1.81672
G1 X170.86 Y171.641 E1.86977
G1 X170.122 Y171.067 E1.92239
G1 X169.67 Y170.26 E1.9745
G1 X169.572 Y169.422 E2.02197
G1 X169.679 Y168.86 E2.05422
G1 X169.801 Y168.567 E2.07207
G1 X169.559 Y168.148 E2.09932
G1 X169.442 Y167.559 E2.13311
G1 X169.442 Y167.133 E2.15712
G1 X169.542 Y166.63 E2.18596
G1 X169.746 Y166.171 E2.21424
G1 X169.559 Y165.848 E2.23529
G1 X169.442 Y165.259 E2.26907
G1 X169.442 Y164.833 E2.29309
G1 X169.542 Y164.33 E2.32192
G1 X169.746 Y163.871 E2.3502
G1 X169.559 Y163.548 E2.37125
G1 X169.442 Y162.959 E2.40504
G1 X169.442 Y162.533 E2.42905
G1 X169.542 Y162.03 E2.45788
G1 X169.746 Y161.572 E2.48616
G1 X169.559 Y161.248 E2.50721
G1 X169.442 Y160.659 E2.541
G1 X169.442 Y160.233 E2.56501
G1 X169.542 Y159.73 E2.59384
G1 X169.746 Y159.272 E2.62212
G1 X169.559 Y158.948 E2.64317
G1 X169.442 Y158.359 E2.67696
G1 X169.442 Y157.933 E2.70097
G1 X169.542 Y157.43 E2.72981
G1 X169.746 Y156.972 E2.75808
G1 X169.559 Y156.648 E2.77913
G1 X169.442 Y156.059 E2.81292
G1 X169.442 Y155.633 E2.83693
G1 X169.542 Y155.13 E2.86577
G1 X169.715 Y154.741 E2.88978
G1 X170.091 Y154.177 E2.92793
G1 X169.757 Y153.664 E2.96243
G1 X169.596 Y153.267 E2.98653
G1 X169.504 Y152.778 E3.01452
G1 X169.518 Y152.331 E3.03969
G1 X169.614 Y151.866 E3.06645
G1 X169.813 Y151.447 E3.09255
G1 X170.07 Y151.067 E3.11837
G1 X170.425 Y150.755 E3.14502
G1 X170.802 Y150.505 E3.17045
G1 X171.252 Y150.359 E3.1971
G1 X171.699 Y150.271 E3.22276
G1 X172.06 Y150.305 E3.24319
G1 X173 Y171.206 F5400
G1 F1200
G1 X173 Y151.336 E4.36185
G1 X172.431 Y150.989 E4.39935
G1 X172.247 Y150.953 E4.4099
G1 X172.247 Y171.196 E5.54954
G1 X171.806 Y171.261 E5.57467
G1 X171.495 Y171.179 E5.59277
G1 X171.495 Y150.932 E6.73261
G1 X171.069 Y151.059 E6.75765
G1 X170.743 Y151.287 E6.78004
G1 X170.743 Y171.164 E7.89909
G1 E7.49909 F2100
G92 E0
G1 X170.901 Y174.658 Z.6 F5400
G1 Z.2
G1 E.4 F2100
;TYPE:Brim
G1 F1200
G1 X171.416 Y174.635 E.42902
G1 X171.704 Y174.656 E.44524
G1 X172.407 Y174.783 E.48547
G1 X172.953 Y174.982 E.5182
G1 X173.46 Y175.262 E.55084
G1 X173.628 Y175.4 E.56303
G1 X173.842 Y175.476 E.57585
G1 X182.532 Y175.476 E1.06508
G1 X183.127 Y175.523 E1.09869
G1 X183.692 Y175.658 E1.13138
G1 X184.352 Y175.945 E1.17189
G1 X184.921 Y176.312 E1.21002
G1 X185.35 Y176.705 E1.24278
G1 X185.714 Y177.161 E1.27564
G1 X186.002 Y177.669 E1.30849
G1 X186.209 Y178.219 E1.34157
G1 X186.341 Y178.847 E1.37769
G1 X186.37 Y179.31 E1.40384
G1 X186.37 Y181.987 E1.55452
G1 X186.323 Y182.582 E1.58813
G1 X186.187 Y183.146 E1.62082
G1 X185.901 Y183.806 E1.66132
G1 X185.533 Y184.375 E1.69945
G1 X185.141 Y184.805 E1.73221
G1 X184.684 Y185.169 E1.76507
G1 X184.178 Y185.456 E1.79787
G1 X183.576 Y185.678 E1.83399
G1 X183 Y185.795 E1.86706
G1 X182.535 Y185.824 E1.89328
G1 X173.932 Y185.824 E2.37766
G1 X173.387 Y185.805 E2.40832
G1 X172.997 Y185.768 E2.4304
G1 X172.357 Y185.663 E2.46692
G1 X171.531 Y185.442 E2.51505
G1 X171.127 Y185.296 E2.53922
G1 X170.732 Y185.125 E2.56346
G1 X170.349 Y184.929 E2.58769
G1 X169.979 Y184.711 E2.61186
G1 X169.466 Y184.356 E2.64698
G1 X169.169 Y184.12 E2.66834
G1 X168.854 Y183.822 E2.69275
G1 X168.516 Y183.437 E2.72159
G1 X168.272 Y183.097 E2.74514
G1 X167.951 Y182.523 E2.78218
G1 X167.743 Y181.996 E2.8141
G1 X167.62 Y181.544 E2.84046
G1 X167.533 Y180.961 E2.87366
G1 X167.516 Y180.585 E2.89483
G1 X167.516 Y178.454 E3.01479
G1 X167.563 Y177.859 E3.0484
G1 X167.698 Y177.294 E3.08109
G1 X167.985 Y176.634 E3.12161
G1 X168.352 Y176.065 E3.15974
G1 X168.745 Y175.636 E3.1925
G1 X169.201 Y175.272 E3.22536
G1 X169.709 Y174.984 E3.25822
G1 X170.255 Y174.779 E3.29108
G1 X170.827 Y174.661 E3.32394
G1 X170.842 Y174.661 E3.32476
G1 X170.927 Y175.335 F5400
G1 F1200
G1 X171.419 Y175.314 E3.3525
G1 X171.629 Y175.33 E3.36436
G1 X172.246 Y175.445 E3.39968
G1 X172.686 Y175.607 E3.42609
G1 X173.063 Y175.816 E3.45037
G1 X173.186 Y175.913 E3.45916
G1 X173.417 Y176.043 E3.4741
G1 X173.598 Y176.108 E3.48494
G1 X173.86 Y176.153 E3.49988
G1 X182.498 Y176.153 E3.98619
G1 X183.005 Y176.192 E4.01485
G1 X183.459 Y176.299 E4.04111
G1 X184.045 Y176.553 E4.07706
G1 X184.518 Y176.862 E4.10887
G1 X184.864 Y177.181 E4.13537
G1 X185.142 Y177.529 E4.16044
G1 X185.393 Y177.972 E4.18907
G1 X185.56 Y178.424 E4.21621
G1 X185.665 Y178.923 E4.24495
G1 X185.692 Y179.337 E4.26832
G1 X185.693 Y181.952 E4.41552
G1 X185.653 Y182.46 E4.44419
M73 P1 R45
G1 X185.536 Y182.947 E4.47243
G1 X185.293 Y183.5 E4.5064
G1 X184.984 Y183.973 E4.53821
G1 X184.664 Y184.318 E4.56471
G1 X184.29 Y184.614 E4.59156
G1 X183.876 Y184.846 E4.61826
G1 X183.404 Y185.019 E4.64657
G1 X182.925 Y185.12 E4.67414
G1 X182.521 Y185.146 E4.69695
G1 X173.947 Y185.147 E5.17964
G1 X173.425 Y185.128 E5.20903
G1 X173.077 Y185.095 E5.22874
G1 X172.509 Y185.002 E5.26114
G1 X171.743 Y184.798 E5.30577
G1 X171.032 Y184.517 E5.34881
G1 X170.67 Y184.332 E5.3717
G1 X170.339 Y184.136 E5.39334
G1 X169.875 Y183.815 E5.42509
G1 X169.606 Y183.601 E5.44445
G1 X169.335 Y183.344 E5.46548
G1 X169.053 Y183.023 E5.48955
G1 X168.839 Y182.724 E5.51027
G1 X168.571 Y182.244 E5.54122
G1 X168.39 Y181.793 E5.56857
G1 X168.283 Y181.393 E5.59186
G1 X168.21 Y180.905 E5.61965
G1 X168.193 Y180.574 E5.63832
G1 X168.193 Y178.489 E5.75572
G1 X168.232 Y177.981 E5.78438
G1 X168.35 Y177.493 E5.81262
G1 X168.577 Y176.97 E5.84474
G1 X168.881 Y176.494 E5.87651
G1 X169.221 Y176.122 E5.90491
G1 X169.596 Y175.827 E5.93177
G1 X170.012 Y175.593 E5.95862
G1 X170.428 Y175.437 E5.98369
G1 X170.868 Y175.347 E6.00895
G1 X171.003 Y176.014 F5400
G1 F1200
G1 X171.032 Y176.008 E6.01059
G1 X171.551 Y176.004 E6.03982
G1 X172.048 Y176.097 E6.06831
G1 X172.388 Y176.219 E6.08866
G1 X172.674 Y176.375 E6.10696
G1 X172.86 Y176.506 E6.11976
G1 X173.199 Y176.684 E6.14136
G1 X173.496 Y176.777 E6.15888
G1 X173.736 Y176.819 E6.17256
G1 X182.464 Y176.83 E6.66394
G1 X182.886 Y176.862 E6.68778
G1 X183.228 Y176.94 E6.70754
G1 X183.738 Y177.161 E6.7388
G1 X184.113 Y177.409 E6.76415
G1 X184.355 Y177.633 E6.78272
G1 X184.569 Y177.897 E6.80185
G1 X184.782 Y178.273 E6.82619
G1 X184.911 Y178.627 E6.84735
G1 X184.99 Y179.002 E6.86894
G1 X185.015 Y179.366 E6.88952
G1 X185.015 Y181.934 E7.03406
G1 X184.984 Y182.337 E7.05685
G1 X184.896 Y182.712 E7.07854
G1 X184.686 Y183.19 E7.10791
G1 X184.437 Y183.568 E7.13338
G1 X184.191 Y183.83 E7.15361
G1 X183.899 Y184.057 E7.17445
G1 X183.577 Y184.234 E7.19512
G1 X183.231 Y184.361 E7.21588
G1 X182.847 Y184.444 E7.23802
G1 X182.505 Y184.469 E7.25731
G1 X173.963 Y184.47 E7.73823
G1 X173.476 Y184.453 E7.76563
G1 X172.665 Y184.341 E7.81171
G1 X171.967 Y184.157 E7.85238
G1 X171.319 Y183.902 E7.89155
G1 X171.002 Y183.742 E7.91157
G1 X170.699 Y183.562 E7.9314
G1 X170.285 Y183.275 E7.95978
G1 X169.837 Y182.887 E7.99318
G1 X169.591 Y182.609 E8.01406
G1 X169.418 Y182.37 E8.03066
G1 X169.179 Y181.94 E8.05837
G1 X169.038 Y181.589 E8.07966
G1 X168.95 Y181.266 E8.0985
G1 X168.886 Y180.848 E8.12229
G1 X168.871 Y178.507 E8.25411
G1 X168.907 Y178.071 E8.27872
G1 X169.001 Y177.693 E8.30067
G1 X169.185 Y177.275 E8.32636
G1 X169.411 Y176.923 E8.34992
G1 X169.673 Y176.632 E8.37197
G1 X169.987 Y176.383 E8.39452
G1 X170.284 Y176.217 E8.41372
G1 X170.602 Y176.095 E8.43285
G1 X170.944 Y176.026 E8.45253
G1 X171.1 Y176.695 F5400
G1 F1200
G1 X171.153 Y176.683 E8.45562
G1 X171.373 Y176.673 E8.46803
G1 X171.58 Y176.691 E8.47969
G1 X172.035 Y176.813 E8.50622
G1 X172.283 Y176.936 E8.52179
G1 X172.754 Y177.276 E8.55452
G1 X172.944 Y177.37 E8.56645
G1 X173.27 Y177.465 E8.58557
G1 X173.468 Y177.494 E8.59686
G1 X182.514 Y177.507 E9.1061
G1 X182.984 Y177.58 E9.13287
G1 X183.29 Y177.686 E9.15111
G1 X183.479 Y177.795 E9.16342
G1 X183.742 Y178.002 E9.18222
G1 X183.995 Y178.286 E9.20365
G1 X184.09 Y178.44 E9.21384
G1 X184.233 Y178.75 E9.23306
G1 X184.311 Y179.031 E9.24948
G1 X184.338 Y179.319 E9.2658
G1 X184.338 Y181.966 E9.4148
G1 X184.266 Y182.437 E9.44164
G1 X184.16 Y182.744 E9.45991
G1 X184.051 Y182.934 E9.47224
G1 X183.844 Y183.196 E9.49104
G1 X183.56 Y183.449 E9.51246
G1 X183.406 Y183.544 E9.52266
G1 X183.099 Y183.686 E9.54168
G1 X182.885 Y183.749 E9.55427
G1 X182.519 Y183.793 E9.57499
G1 X173.804 Y183.787 E10.06562
G1 X173.097 Y183.727 E10.10559
G1 X172.357 Y183.567 E10.14823
G1 X171.616 Y183.289 E10.19275
G1 X170.89 Y182.875 E10.23982
G1 X170.489 Y182.571 E10.26814
G1 X170.182 Y182.26 E10.29275
G1 X169.943 Y181.929 E10.31574
G1 X169.708 Y181.457 E10.34543
G1 X169.602 Y181.073 E10.36786
G1 X169.551 Y180.65 E10.39183
G1 X169.547 Y178.474 E10.51433
G1 X169.62 Y178.004 E10.54111
G1 X169.673 Y177.831 E10.55128
G1 X169.772 Y177.608 E10.56506
G1 X169.888 Y177.422 E10.5774
G1 X170.098 Y177.173 E10.59575
G1 X170.239 Y177.042 E10.60653
G1 X170.415 Y176.915 E10.61878
G1 X170.665 Y176.796 E10.63439
G1 X171.041 Y176.709 E10.65611
G1 X171.172 Y177.36 F5400
G1 F1200
G1 X171.418 Y177.348 E10.66993
G1 X171.743 Y177.424 E10.68874
G1 X171.904 Y177.496 E10.69867
G1 X172.111 Y177.633 E10.71266
G1 X172.407 Y177.864 E10.73378
G1 X172.72 Y178.013 E10.7533
G1 X173.146 Y178.134 E10.77822
G1 X173.436 Y178.173 E10.7947
G1 X182.528 Y178.184 E11.30659
G1 X182.874 Y178.248 E11.32635
G1 X183.049 Y178.318 E11.33696
G1 X183.336 Y178.544 E11.35759
G1 X183.47 Y178.712 E11.36967
G1 X183.625 Y179.048 E11.39051
G1 X183.647 Y179.161 E11.397
G1 X183.661 Y179.31 E11.40538
G1 X183.661 Y181.982 E11.55581
G1 X183.598 Y182.327 E11.57561
G1 X183.528 Y182.503 E11.58624
G1 X183.301 Y182.791 E11.60686
G1 X183.133 Y182.924 E11.61894
G1 X182.802 Y183.077 E11.63949
G1 X182.531 Y183.116 E11.65488
G1 X173.871 Y183.113 E12.14246
G1 X173.142 Y183.051 E12.18365
G1 X172.494 Y182.904 E12.22105
G1 X171.96 Y182.706 E12.25311
G1 X171.3 Y182.336 E12.29573
G1 X170.966 Y182.09 E12.31909
G1 X170.729 Y181.862 E12.33756
G1 X170.54 Y181.612 E12.35523
G1 X170.393 Y181.343 E12.37246
G1 X170.331 Y181.192 E12.38166
G1 X170.256 Y180.896 E12.39885
G1 X170.224 Y180.576 E12.41698
G1 X170.224 Y178.459 E12.53616
G1 X170.287 Y178.117 E12.55574
G1 X170.397 Y177.869 E12.571
G1 X170.624 Y177.599 E12.59087
G1 X170.826 Y177.454 E12.60485
G1 X171.115 Y177.375 E12.62171
G1 X171.251 Y178.035 F5400
G1 F1200
G1 X171.325 Y178.019 E12.62599
G1 X171.449 Y178.034 E12.63301
G1 X171.639 Y178.12 E12.64474
G1 X171.816 Y178.281 E12.65826
G1 X172.051 Y178.444 E12.67436
G1 X172.499 Y178.658 E12.70229
G1 X173.026 Y178.803 E12.73309
G1 X173.405 Y178.851 E12.75459
G1 X182.546 Y178.861 E13.26922
G1 X182.71 Y178.904 E13.27872
G1 X182.794 Y178.951 E13.28418
G1 X182.956 Y179.153 E13.29876
G1 X182.984 Y179.3 E13.30718
G1 X182.984 Y182 E13.45918
G1 X182.942 Y182.164 E13.46871
G1 X182.895 Y182.249 E13.47417
G1 X182.692 Y182.41 E13.48875
G1 X182.546 Y182.439 E13.49717
G1 X173.926 Y182.439 E13.98247
G1 X173.305 Y182.394 E14.01748
