; HEADER_BLOCK_START
; generated by OrcaSlicer 2.1.1 on 2024-07-23 at 12:05:10
; total layer number: 115
; filament_density: 1.04
; filament_diameter: 1.75
; max_z_height: 23.00
; HEADER_BLOCK_END

; THUMBNAIL_BLOCK_START

;
; THUMBNAIL_BLOCK_END

; THUMBNAIL_BLOCK_START

;
; THUMBNAIL_BLOCK_END

; external perimeters extrusion width = 0.60mm
; perimeters extrusion width = 0.67mm
; infill extrusion width = 0.67mm
; solid infill extrusion width = 0.60mm
; top infill extrusion width = 0.60mm
; support material extrusion width = 0.60mm
; first layer extrusion width = 0.72mm

; external perimeters extrusion width = 0.60mm
; perimeters extrusion width = 0.67mm
; infill extrusion width = 0.67mm
; solid infill extrusion width = 0.60mm
; top infill extrusion width = 0.60mm
; support material extrusion width = 0.60mm
; first layer extrusion width = 0.72mm

; external perimeters extrusion width = 0.60mm
; perimeters extrusion width = 0.67mm
; infill extrusion width = 0.67mm
; solid infill extrusion width = 0.60mm
; top infill extrusion width = 0.60mm
; support material extrusion width = 0.60mm
; first layer extrusion width = 0.72mm

; EXECUTABLE_BLOCK_START
M73 P0 R44
M201 X1500 Y1500 Z200 E5000
M203 X200 Y200 Z25 E60
M204 P1250 R1250 T1250
M205 X10.00 Y10.00 Z0.40 E4.50 ; sets the jerk limits, mm/sec
;TYPE:Custom
G21 ; set units to millimeters
G90 ; use absolute coordinates
M82 ; use absolute distances for extrusion
G92 E0 ; zero extruder
M107 ; turn off fan

M301 E P19.56 I2.08 D46.07 ; set PID Extruder1
M304 P132.91 I11.48 D372.91 ; set PID Bed

G28 X0 Y0                ;move X/Y to min endstops
G28 Z0                   ;move Z to min endstops

G0 F4200 X0 Y2

M6013 S50                ;set chamber temperature

M190 S85 ; set bed temperature and wait for it to be reached

M104 S255 ; set temperature
M109 S255 ; set temperature and wait for it to be reached

M900 W0.6 H0.2 D1.75  ;set linear advance ratio

;Add Clear Nozzle
G92 E0                   ;zero the extruded length
M83                      ;set E value is relative 
G0 F4200 X0 Y2 

M420 S ;turn bed levelling on
G0 F1500 X40 Y2 Z0.4           ;move a bit while down the Z 
M221 S200             ;set flow is 200% 
G1 F200 X60 E+8          ;extrude amont filament to clean the hotend 
M221 S100             ;reset flow is 100% 

M82                      ;set E value is absolute
G92 E0                   ;zero the extruded length again

;Add End
G0 Z1 F4200           ;move the platform down 15mm
;Put printing message on LCD screen
M117 Printing...
G90
G21
M82 ; use absolute distances for extrusion
G92 E0
; Filament gcode
M900 K10
M106 S0
;LAYER_CHANGE
;Z:0.2
;HEIGHT:0.2
;BEFORE_LAYER_CHANGE
;0.2


G1 E-.4 F2100
G92 E0
;AFTER_LAYER_CHANGE
;G92 E0   ;zero the extruded length again
;0.2
;_SET_FAN_SPEED_CHANGING_LAYER
M204 S800
M205 X4 Y4
G1 X178.054 Y111.216 F5400
G1 Z.4
G1 Z.2
G1 E.4 F2100
;TYPE:Skirt
;WIDTH:0.72
G1 F3000
G1 X178.962 Y109.763 E.49069
G1 X179.763 Y108.862 E.55447
G1 X180.721 Y108.082 E.61985
G1 X182.466 Y107.143 E.72472
G1 X183.645 Y106.774 E.7901
G1 X185.077 Y106.58 E.86657
G1 X205.809 Y106.576 E1.96373
G1 X207.399 Y106.69 E2.04809
G1 X208.571 Y106.969 E2.11187
G1 X209.712 Y107.442 E2.17725
G1 X211.161 Y108.357 E2.26794
G1 X212.399 Y109.585 E2.36023
G1 X213.07 Y110.519 E2.42106
G1 X240.455 Y154.254 E5.15192
G1 X240.945 Y155.363 E5.21608
G1 X241.135 Y156.583 E5.28142
G1 X241.129 Y163.568 E5.65104
G1 X240.993 Y164.465 E5.69907
G1 X240.707 Y165.273 E5.74441
G1 X240.264 Y166.034 E5.791
G1 X239.808 Y166.58 E5.82866
G1 X223.04 Y183.349 E7.08366
G1 X222.222 Y183.985 E7.13851
G1 X221.264 Y184.433 E7.19449
G1 X220.379 Y184.637 E7.24252
G1 X183.209 Y188.804 E9.22193
G1 X173.111 Y188.808 E9.75635
G1 X171.239 Y188.498 E9.85678
G1 X169.523 Y187.887 E9.95313
G1 X168.432 Y187.299 E10.01875
G1 X167.6 Y186.725 E10.07223
G1 X166.774 Y186.006 E10.1302
G1 X166.076 Y185.21 E10.18622
G1 X165.307 Y183.972 E10.26336
G1 X164.932 Y183.088 E10.31415
G1 X164.641 Y182.008 E10.37336
G1 X164.522 Y181.117 E10.42095
G1 X164.5 Y141.514 E12.51677
G1 X164.66 Y140.001 E12.5973
G1 X164.954 Y138.949 E12.6551
G1 X165.245 Y138.245 E12.69544
G1 X178.028 Y111.27 E14.27515
; printing object Standfuss1.step id:2560218609128 copy 0
G1 E13.87515 F2100
G92 E0
G1 X176.894 Y118.818 Z.6 F5400
G1 X172.161 Y150.315 Z.6
G1 Z.2
G1 E.4 F2100
;TYPE:Support
G1 F1200
G1 X172.656 Y150.412 E.42665
G1 X173.428 Y150.884 E.47452
G1 X173.975 Y151.655 E.52459
G1 X174.175 Y152.577 E.57452
G1 X173.997 Y153.503 E.62439
G1 X173.473 Y154.28 E.67402
G1 X173.918 Y154.925 E.71545
G1 X174.106 Y155.846 E.76521
G1 X173.918 Y156.767 E.81498
G1 X173.76 Y156.996 E.82968
G1 X173.918 Y157.225 E.84438
G1 X174.106 Y158.146 E.89415
G1 X173.918 Y159.067 E.94391
G1 X173.76 Y159.296 E.95861
G1 X173.918 Y159.525 E.97331
G1 X174.106 Y160.446 E1.02308
G1 X173.918 Y161.367 E1.07284
G1 X173.76 Y161.596 E1.08754
G1 X173.918 Y161.825 E1.10225
G1 X174.106 Y162.746 E1.15201
G1 X173.918 Y163.667 E1.20178
G1 X173.76 Y163.896 E1.21648
G1 X173.918 Y164.125 E1.23118
G1 X174.106 Y165.046 E1.28094
G1 X173.918 Y165.967 E1.33071
G1 X173.76 Y166.196 E1.34541
G1 X173.918 Y166.425 E1.36011
G1 X174.106 Y167.346 E1.40988
G1 X173.897 Y168.366 E1.46499
G1 X174.075 Y168.628 E1.4817
G1 X174.256 Y169.553 E1.53159
G1 X174.058 Y170.475 E1.58151
G1 X173.514 Y171.248 E1.63154
G1 X172.707 Y171.744 E1.68165
G1 X171.771 Y171.882 E1.73172
G1 X170.86 Y171.641 E1.78158
G1 X170.122 Y171.067 E1.83105
G1 X169.67 Y170.26 E1.88003
G1 X169.572 Y169.422 E1.92465
G1 X169.679 Y168.86 E1.95497
G1 X169.801 Y168.567 E1.97174
G1 X169.559 Y168.148 E1.99736
G1 X169.442 Y167.559 E2.02913
G1 X169.442 Y167.133 E2.0517
G1 X169.542 Y166.63 E2.0788
G1 X169.746 Y166.171 E2.10538
G1 X169.559 Y165.848 E2.12517
G1 X169.442 Y165.259 E2.15693
G1 X169.442 Y164.833 E2.1795
G1 X169.542 Y164.33 E2.20661
G1 X169.746 Y163.871 E2.23319
G1 X169.559 Y163.548 E2.25297
G1 X169.442 Y162.959 E2.28473
G1 X169.442 Y162.533 E2.3073
G1 X169.542 Y162.03 E2.33441
G1 X169.746 Y161.572 E2.36099
G1 X169.559 Y161.248 E2.38078
G1 X169.442 Y160.659 E2.41254
G1 X169.442 Y160.233 E2.43511
G1 X169.542 Y159.73 E2.46221
G1 X169.746 Y159.272 E2.48879
G1 X169.559 Y158.948 E2.50858
G1 X169.442 Y158.359 E2.54034
G1 X169.442 Y157.933 E2.56291
G1 X169.542 Y157.43 E2.59002
G1 X169.746 Y156.972 E2.6166
G1 X169.559 Y156.648 E2.63639
G1 X169.442 Y156.059 E2.66815
G1 X169.442 Y155.633 E2.69072
G1 X169.542 Y155.13 E2.71782
G1 X169.715 Y154.741 E2.7404
G1 X170.091 Y154.177 E2.77625
G1 X169.757 Y153.664 E2.80868
G1 X169.596 Y153.267 E2.83134
G1 X169.504 Y152.778 E2.85765
G1 X169.518 Y152.331 E2.88131
G1 X169.614 Y151.866 E2.90646
G1 X169.813 Y151.447 E2.931
G1 X170.07 Y151.067 E2.95527
G1 X170.425 Y150.755 E2.98032
G1 X170.802 Y150.505 E3.00422
G1 X171.252 Y150.359 E3.02927
G1 X171.699 Y150.271 E3.0534
G1 X172.06 Y150.305 E3.0726
G1 X173 Y171.206 F5400
G1 F1200
G1 X173 Y151.336 E4.12414
G1 X172.431 Y150.989 E4.15939
G1 X172.247 Y150.953 E4.1693
G1 X172.247 Y171.196 E5.24057
G1 X171.806 Y171.261 E5.26419
G1 X171.495 Y171.179 E5.2812
G1 X171.495 Y150.932 E6.35265
G1 X171.069 Y151.059 E6.37619
G1 X170.743 Y151.287 E6.39724
G1 X170.743 Y171.164 E7.44914
G1 E7.04914 F2100
G92 E0
G1 X170.901 Y174.658 Z.6 F5400
G1 Z.2
G1 E.4 F2100
;TYPE:Brim
G1 F1200
G1 X171.416 Y174.635 E.42728
G1 X171.704 Y174.656 E.44252
G1 X172.407 Y174.783 E.48034
G1 X172.953 Y174.982 E.51111
G1 X173.46 Y175.262 E.54179
G1 X173.628 Y175.4 E.55325
G1 X173.842 Y175.476 E.5653
G1 X182.532 Y175.476 E1.02518
G1 X183.127 Y175.523 E1.05677
G1 X183.692 Y175.658 E1.0875
G1 X184.352 Y175.945 E1.12557
G1 X184.921 Y176.312 E1.16142
G1 X185.35 Y176.705 E1.19221
G1 X185.714 Y177.161 E1.2231
G1 X186.002 Y177.669 E1.25398
G1 X186.209 Y178.219 E1.28507
G1 X186.341 Y178.847 E1.31903
G1 X186.37 Y179.31 E1.34361
G1 X186.37 Y181.987 E1.48525
G1 X186.323 Y182.582 E1.51684
G1 X186.187 Y183.146 E1.54757
G1 X185.901 Y183.806 E1.58564
G1 X185.533 Y184.375 E1.62148
G1 X185.141 Y184.805 E1.65228
G1 X184.684 Y185.169 E1.68317
G1 X184.178 Y185.456 E1.71399
G1 X183.576 Y185.678 E1.74795
G1 X183 Y185.795 E1.77904
G1 X182.535 Y185.824 E1.80368
G1 X173.932 Y185.824 E2.259
G1 X173.387 Y185.805 E2.28782
G1 X172.997 Y185.768 E2.30858
G1 X172.357 Y185.663 E2.3429
G1 X171.531 Y185.442 E2.38814
G1 X171.127 Y185.296 E2.41087
G1 X170.732 Y185.125 E2.43365
G1 X170.349 Y184.929 E2.45643
G1 X169.979 Y184.711 E2.47915
G1 X169.466 Y184.356 E2.51216
G1 X169.169 Y184.12 E2.53224
G1 X168.854 Y183.822 E2.55518
G1 X168.516 Y183.437 E2.5823
G1 X168.272 Y183.097 E2.60443
G1 X167.951 Y182.523 E2.63925
G1 X167.743 Y181.996 E2.66926
G1 X167.62 Y181.544 E2.69403
G1 X167.533 Y180.961 E2.72524
G1 X167.516 Y180.585 E2.74514
G1 X167.516 Y178.454 E2.8579
G1 X167.563 Y177.859 E2.88949
G1 X167.698 Y177.294 E2.92022
G1 X167.985 Y176.634 E2.95832
G1 X168.352 Y176.065 E2.99416
G1 X168.745 Y175.636 E3.02495
G1 X169.201 Y175.272 E3.05584
G1 X169.709 Y174.984 E3.08673
G1 X170.255 Y174.779 E3.11761
G1 X170.827 Y174.661 E3.1485
G1 X170.842 Y174.661 E3.14928
G1 X170.927 Y175.335 F5400
G1 F1200
G1 X171.419 Y175.314 E3.17535
G1 X171.629 Y175.33 E3.1865
G1 X172.246 Y175.445 E3.2197
G1 X172.686 Y175.607 E3.24453
G1 X173.063 Y175.816 E3.26735
G1 X173.186 Y175.913 E3.27561
G1 X173.417 Y176.043 E3.28965
G1 X173.598 Y176.108 E3.29985
G1 X173.86 Y176.153 E3.31389
G1 X182.498 Y176.153 E3.77102
G1 X183.005 Y176.192 E3.79796
G1 X183.459 Y176.299 E3.82264
G1 X184.045 Y176.553 E3.85644
G1 X184.518 Y176.862 E3.88634
G1 X184.864 Y177.181 E3.91125
M73 P1 R44
G1 X185.142 Y177.529 E3.93481
G1 X185.393 Y177.972 E3.96173
G1 X185.56 Y178.424 E3.98724
G1 X185.665 Y178.923 E4.01426
G1 X185.692 Y179.337 E4.03622
G1 X185.693 Y181.952 E4.17459
G1 X185.653 Y182.46 E4.20154
G1 X185.536 Y182.947 E4.22808
G1 X185.293 Y183.5 E4.26002
G1 X184.984 Y183.973 E4.28992
G1 X184.664 Y184.318 E4.31482
G1 X184.29 Y184.614 E4.34007
G1 X183.876 Y184.846 E4.36516
G1 X183.404 Y185.019 E4.39177
G1 X182.925 Y185.12 E4.41769
G1 X182.521 Y185.146 E4.43914
G1 X173.947 Y185.147 E4.89286
G1 X173.425 Y185.128 E4.92049
G1 X173.077 Y185.095 E4.93901
G1 X172.509 Y185.002 E4.96947
G1 X171.743 Y184.798 E5.01142
G1 X171.032 Y184.517 E5.05188
G1 X170.67 Y184.332 E5.0734
G1 X170.339 Y184.136 E5.09374
G1 X169.875 Y183.815 E5.12358
G1 X169.606 Y183.601 E5.14178
G1 X169.335 Y183.344 E5.16155
G1 X169.053 Y183.023 E5.18418
G1 X168.839 Y182.724 E5.20366
G1 X168.571 Y182.244 E5.23275
G1 X168.39 Y181.793 E5.25846
G1 X168.283 Y181.393 E5.28035
G1 X168.21 Y180.905 E5.30647
G1 X168.193 Y180.574 E5.32402
G1 X168.193 Y178.489 E5.43437
G1 X168.232 Y177.981 E5.46132
G1 X168.35 Y177.493 E5.48786
G1 X168.577 Y176.97 E5.51806
G1 X168.881 Y176.494 E5.54792
G1 X169.221 Y176.122 E5.57462
G1 X169.596 Y175.827 E5.59986
G1 X170.012 Y175.593 E5.6251
G1 X170.428 Y175.437 E5.64867
G1 X170.868 Y175.347 E5.67241
G1 X171.003 Y176.014 F5400
G1 F1200
G1 X171.032 Y176.008 E5.67395
G1 X171.551 Y176.004 E5.70143
G1 X172.048 Y176.097 E5.72821
G1 X172.388 Y176.219 E5.74734
G1 X172.674 Y176.375 E5.76454
G1 X172.86 Y176.506 E5.77657
G1 X173.199 Y176.684 E5.79688
G1 X173.496 Y176.777 E5.81335
G1 X173.736 Y176.819 E5.82621
G1 X182.464 Y176.83 E6.28811
G1 X182.886 Y176.862 E6.31051
G1 X183.228 Y176.94 E6.32908
G1 X183.738 Y177.161 E6.35847
G1 X184.113 Y177.409 E6.3823
G1 X184.355 Y177.633 E6.39975
G1 X184.569 Y177.897 E6.41774
G1 X184.782 Y178.273 E6.44062
G1 X184.911 Y178.627 E6.46051
G1 X184.99 Y179.002 E6.4808
G1 X185.015 Y179.366 E6.50015
G1 X185.015 Y181.934 E6.63601
G1 X184.984 Y182.337 E6.65744
G1 X184.896 Y182.712 E6.67783
G1 X184.686 Y183.19 E6.70543
G1 X184.437 Y183.568 E6.72938
G1 X184.191 Y183.83 E6.74839
G1 X183.899 Y184.057 E6.76799
G1 X183.577 Y184.234 E6.78742
G1 X183.231 Y184.361 E6.80693
G1 X182.847 Y184.444 E6.82774
G1 X182.505 Y184.469 E6.84587
G1 X173.963 Y184.47 E7.29793
G1 X173.476 Y184.453 E7.32369
G1 X172.665 Y184.341 E7.36701
G1 X171.967 Y184.157 E7.40524
G1 X171.319 Y183.902 E7.44206
G1 X171.002 Y183.742 E7.46087
G1 X170.699 Y183.562 E7.47951
G1 X170.285 Y183.275 E7.5062
G1 X169.837 Y182.887 E7.53759
G1 X169.591 Y182.609 E7.55721
G1 X169.418 Y182.37 E7.57282
G1 X169.179 Y181.94 E7.59887
G1 X169.038 Y181.589 E7.61888
G1 X168.95 Y181.266 E7.63659
G1 X168.886 Y180.848 E7.65895
G1 X168.871 Y178.507 E7.78287
G1 X168.907 Y178.071 E7.806
G1 X169.001 Y177.693 E7.82663
G1 X169.185 Y177.275 E7.85078
G1 X169.411 Y176.923 E7.87292
G1 X169.673 Y176.632 E7.89365
G1 X169.987 Y176.383 E7.91485
G1 X170.284 Y176.217 E7.93289
G1 X170.602 Y176.095 E7.95088
G1 X170.944 Y176.026 E7.96938
G1 X171.1 Y176.695 F5400
G1 F1200
G1 X171.153 Y176.683 E7.97229
G1 X171.373 Y176.673 E7.98395
G1 X171.58 Y176.691 E7.99491
G1 X172.035 Y176.813 E8.01985
G1 X172.283 Y176.936 E8.03448
G1 X172.754 Y177.276 E8.06525
G1 X172.944 Y177.37 E8.07646
G1 X173.27 Y177.465 E8.09444
G1 X173.468 Y177.494 E8.10505
G1 X182.514 Y177.507 E8.58373
G1 X182.984 Y177.58 E8.6089
G1 X183.29 Y177.686 E8.62604
G1 X183.479 Y177.795 E8.63762
G1 X183.742 Y178.002 E8.65529
G1 X183.995 Y178.286 E8.67543
G1 X184.09 Y178.44 E8.68501
G1 X184.233 Y178.75 E8.70308
G1 X184.311 Y179.031 E8.71851
G1 X184.338 Y179.319 E8.73386
G1 X184.338 Y181.966 E8.87392
G1 X184.266 Y182.437 E8.89914
G1 X184.16 Y182.744 E8.91632
G1 X184.051 Y182.934 E8.92791
G1 X183.844 Y183.196 E8.94558
G1 X183.56 Y183.449 E8.96571
G1 X183.406 Y183.544 E8.9753
G1 X183.099 Y183.686 E8.99318
G1 X182.885 Y183.749 E9.00502
G1 X182.519 Y183.793 E9.02449
G1 X173.804 Y183.787 E9.48568
G1 X173.097 Y183.727 E9.52326
G1 X172.357 Y183.567 E9.56333
G1 X171.616 Y183.289 E9.60519
G1 X170.89 Y182.875 E9.64943
G1 X170.489 Y182.571 E9.67605
G1 X170.182 Y182.26 E9.69918
G1 X169.943 Y181.929 E9.7208
G1 X169.708 Y181.457 E9.74871
G1 X169.602 Y181.073 E9.76979
G1 X169.551 Y180.65 E9.79232
G1 X169.547 Y178.474 E9.90747
G1 X169.62 Y178.004 E9.93265
G1 X169.673 Y177.831 E9.94221
G1 X169.772 Y177.608 E9.95516
G1 X169.888 Y177.422 E9.96675
G1 X170.098 Y177.173 E9.98401
G1 X170.239 Y177.042 E9.99414
G1 X170.415 Y176.915 E10.00565
G1 X170.665 Y176.796 E10.02033
G1 X171.041 Y176.709 E10.04074
G1 X171.172 Y177.36 F5400
G1 F1200
G1 X171.418 Y177.348 E10.05373
G1 X171.743 Y177.424 E10.07142
G1 X171.904 Y177.496 E10.08075
G1 X172.111 Y177.633 E10.0939
G1 X172.407 Y177.864 E10.11375
G1 X172.72 Y178.013 E10.1321
G1 X173.146 Y178.134 E10.15553
G1 X173.436 Y178.173 E10.17101
G1 X182.528 Y178.184 E10.6522
G1 X182.874 Y178.248 E10.67077
G1 X183.049 Y178.318 E10.68074
G1 X183.336 Y178.544 E10.70013
G1 X183.47 Y178.712 E10.71149
G1 X183.625 Y179.048 E10.73108
G1 X183.647 Y179.161 E10.73718
G1 X183.661 Y179.31 E10.74506
G1 X183.661 Y181.982 E10.88646
G1 X183.598 Y182.327 E10.90507
G1 X183.528 Y182.503 E10.91506
G1 X183.301 Y182.791 E10.93445
G1 X183.133 Y182.924 E10.94581
G1 X182.802 Y183.077 E10.96512
G1 X182.531 Y183.116 E10.97959
G1 X173.871 Y183.113 E11.43792
G1 X173.142 Y183.051 E11.47663
G1 X172.494 Y182.904 E11.51179
G1 X171.96 Y182.706 E11.54193
G1 X171.3 Y182.336 E11.58199
G1 X170.966 Y182.09 E11.60394
G1 X170.729 Y181.862 E11.62131
G1 X170.54 Y181.612 E11.63792
G1 X170.393 Y181.343 E11.65411
G1 X170.331 Y181.192 E11.66276
G1 X170.256 Y180.896 E11.67891
G1 X170.224 Y180.576 E11.69596
G1 X170.224 Y178.459 E11.80799
G1 X170.287 Y178.117 E11.8264
G1 X170.397 Y177.869 E11.84074
G1 X170.624 Y177.599 E11.85942
G1 X170.826 Y177.454 E11.87256
G1 X171.115 Y177.375 E11.88841
G1 X171.251 Y178.035 F5400
G1 F1200
G1 X171.325 Y178.019 E11.89243
G1 X171.449 Y178.034 E11.89903
G1 X171.639 Y178.12 E11.91005
G1 X171.816 Y178.281 E11.92276
G1 X172.051 Y178.444 E11.9379
G1 X172.499 Y178.658 E11.96415
G1 X173.026 Y178.803 E11.9931
G1 X173.405 Y178.851 E12.01331
G1 X182.546 Y178.861 E12.49706
G1 X182.71 Y178.904 E12.506
G1 X182.794 Y178.951 E12.51113
G1 X182.956 Y179.153 E12.52484
G1 X182.984 Y179.3 E12.53275
G1 X182.984 Y182 E12.67563
G1 X182.942 Y182.164 E12.68459
G1 X182.895 Y182.249 E12.68972
G1 X182.692 Y182.41 E12.70343
G1 X182.546 Y182.439 E12.71134
G1 X173.926 Y182.439 E13.16752
G1 X173.305 Y182.394 E13.20043
G1 X172.631 Y182.241 E13.23704
